X:1
T: Mrs. Oliphant of Condie's Strathspey
C:
R:Strathspey
Q: 128
K:G
M:4/4
L:1/16
|:d2|BG3 G3d BcdB G2B2|EA3 A3G FD3 D3d|BG3 G3d BcdB G2g2|eg3 d3c BG3 G2d2|
BG3 G3d BcdB G2B2|EA3 A3G FD3 D3d|BG3 G3d BcdB G2g2|eg3 d3c BG3 G2d2|
g3a b3g ae3 g3d|eg3 d2cB aA3 A3d|g3a b3g ae3 g3d|eg3 d3c BG3 G2d2|
g3a b3g ae3 g3d|eg3 d2cB aA3 A3d|bg3 ae3 gd3 e2dc|Bg3 d3c BG3 G2:|
